germany/municipalities/07134061.svg

<?xml version="1.0" encoding="UTF-8" standalone="no"?>
<!-- Created with Inkscape (http://www.inkscape.org/) -->

<svg
   xmlns:dc="http://purl.org/dc/elements/1.1/"
   xmlns:cc="http://creativecommons.org/ns#"
   xmlns:rdf="http://www.w3.org/1999/02/22-rdf-syntax-ns#"
   xmlns:svg="http://www.w3.org/2000/svg"
   xmlns="http://www.w3.org/2000/svg"
   xmlns:sodipodi="http://sodipodi.sourceforge.net/DTD/sodipodi-0.dtd"
   xmlns:inkscape="http://www.inkscape.org/namespaces/inkscape"
   width="187.11678mm"
   height="209.34361mm"
   viewBox="0 0 187.11678 209.34361"
   version="1.1"
   id="svg1094"
   inkscape:version="0.92.4 (5da689c313, 2019-01-14)"
   sodipodi:docname="DEU Nohen COA.svg">
  <defs
     id="defs1088">
    <inkscape:path-effect
       effect="spiro"
       id="path-effect2292"
       is_visible="true" />
  </defs>
  <sodipodi:namedview
     id="base"
     pagecolor="#ffffff"
     bordercolor="#666666"
     borderopacity="1.0"
     inkscape:pageopacity="0.0"
     inkscape:pageshadow="2"
     inkscape:zoom="0.69260135"
     inkscape:cx="353.60649"
     inkscape:cy="395.60998"
     inkscape:document-units="mm"
     inkscape:current-layer="layer1"
     showgrid="false"
     inkscape:window-width="1366"
     inkscape:window-height="745"
     inkscape:window-x="-8"
     inkscape:window-y="-8"
     inkscape:window-maximized="1"
     fit-margin-top="0"
     fit-margin-left="0"
     fit-margin-right="0"
     fit-margin-bottom="0"
     inkscape:snap-midpoints="true"
     inkscape:snap-smooth-nodes="true"
     inkscape:snap-nodes="false" />
  <metadata
     id="metadata1091">
    <rdf:RDF>
      <cc:Work
         rdf:about="">
        <dc:format>image/svg+xml</dc:format>
        <dc:type
           rdf:resource="http://purl.org/dc/dcmitype/StillImage" />
        <dc:title></dc:title>
      </cc:Work>
    </rdf:RDF>
  </metadata>
  <g
     inkscape:label="Ebene 1"
     inkscape:groupmode="layer"
     id="layer1"
     transform="translate(-5.6030199,-12.295503)">
    <path
       style="fill:#ffffff;fill-opacity:1;fill-rule:evenodd;stroke:none;stroke-width:3.10444427;stroke-opacity:1"
       inkscape:connector-curvature="0"
       d="M 7.16761,13.847725 8.10078,131.42842 c 2.03629,49.45938 42.26927,88.63078 91.06065,88.65847 48.74747,-0.0606 88.99549,-39.24617 91.06062,-88.65847 L 191.1552,13.847725 H 99.16362 Z"
       id="path10563-0-6-7-2-9"
       sodipodi:nodetypes="ccccccc" />
    <path
       style="fill:#0033ff;fill-opacity:1;stroke:#000000;stroke-width:5;stroke-linecap:round;stroke-linejoin:round;stroke-miterlimit:4;stroke-dasharray:none;stroke-opacity:1"
       d="M 699.72852 203.86914 C 690.16713 212.84849 679.83225 220.99959 668.80664 228.14844 C 639.01663 247.46386 605.25625 259.55732 572.65234 273.61133 C 540.0484 287.66534 507.57827 304.38496 483.66406 330.62695 C 459.75791 356.86016 446.16864 390.61113 432.63086 423.41992 C 419.09312 456.22868 404.54164 489.7552 379.31836 514.72461 C 354.09511 539.69406 320.42254 553.90607 287.47852 567.11133 C 254.5345 580.31658 220.64749 593.5635 194.17383 617.20312 C 167.69129 640.85068 150.64479 673.1512 136.26172 705.61133 C 136.14417 705.87661 136.03048 706.14419 135.91406 706.41016 C 154.05858 721.46161 173.72194 734.67977 194.64062 745.77148 C 207.83351 717.77762 223.69571 690.74722 246.66992 670.23242 C 273.14357 646.5928 307.02865 633.34588 339.97266 620.14062 C 372.91665 606.93537 406.58922 592.72336 431.8125 567.75391 C 457.03578 542.7845 471.58719 509.25801 485.125 476.44922 C 498.66278 443.64046 512.25205 409.88946 536.1582 383.65625 C 560.07241 357.41423 592.54449 340.69466 625.14844 326.64062 C 649.85179 315.99216 675.21195 306.45653 699.01172 294.0625 L 699.72852 203.86914 z "
       transform="matrix(0.26458333,0,0,0.26458333,5.6030199,12.295503)"
       id="path2290" />
    <path
       style="fill:#000000;fill-opacity:1;stroke:#000000;stroke-width:0.99999994;stroke-linecap:round;stroke-linejoin:round;stroke-miterlimit:4;stroke-dasharray:none;stroke-opacity:1;paint-order:markers fill stroke"
       d="M 8.9707031 391.24219 L 9.4394531 450.26562 C 12.071155 514.18695 31.592259 573.55593 63.505859 624.02344 L 114.67188 624.02344 L 208.4375 448.51367 L 440.80078 448.51367 L 440.80078 391.24219 L 8.9707031 391.24219 z "
       transform="matrix(0.26458333,0,0,0.26458333,5.6030199,12.295503)"
       id="rect1961-8" />
    <path
       inkscape:connector-curvature="0"
       style="fill:#ffffff;stroke:none;stroke-width:2.9104166;stroke-linecap:round;stroke-linejoin:round;stroke-miterlimit:4;stroke-dasharray:none;stroke-opacity:1"
       d="m 191.15503,13.847865 -0.93276,117.580425 c -0.94096,22.51421 -9.81188,42.90297 -23.79907,58.43727 L 7.16781,13.847865 h 91.99593 z"
       id="path3507" />
    <path
       inkscape:connector-curvature="0"
       style="fill:#ff0000;fill-opacity:1;stroke:#000000;stroke-width:1.32291663;stroke-linecap:round;stroke-linejoin:round;stroke-miterlimit:4;stroke-dasharray:none;stroke-opacity:1;paint-order:markers fill stroke"
       d="m 191.15503,13.847865 -0.35709,44.983301 H 146.17172 V 13.847865 Z M 146.17172,58.831166 V 103.81446 H 101.18791 V 58.831166 Z m -44.98381,0 H 56.20461 V 13.847865 h 42.95913 2.02417 z m -44.9833,0 v 9.21494 l -8.33748,-9.21494 z m 44.9833,44.983294 v 13.94956 L 88.56697,103.81446 Z m 44.98381,0 h 44.26965 l -0.2191,27.61383 c -0.24894,5.95628 -1.05836,11.76177 -2.36523,17.37001 h -41.68532 z m 0,44.98384 v 18.68413 L 129.26681,148.7983 Z"
       id="rect3527" />
    <path
       inkscape:connector-curvature="0"
       style="fill:none;stroke:#000000;stroke-width:2.9104166;stroke-linecap:round;stroke-linejoin:round;stroke-miterlimit:4;stroke-dasharray:none;stroke-opacity:1"
       d="m 191.15494,13.847895 -0.93276,117.580435 c -0.94096,22.51419 -9.81188,42.90295 -23.79907,58.43726 L 7.16772,13.847895 h 91.99593 z"
       id="path3507-7" />
    <path
       style="fill:none;fill-rule:evenodd;stroke:#000000;stroke-width:3.10444427;stroke-opacity:1"
       inkscape:connector-curvature="0"
       d="M 7.16761,13.847725 8.10078,131.42842 c 2.03629,49.45938 42.26927,88.63078 91.06065,88.65847 48.74747,-0.0606 88.99549,-39.24617 91.06062,-88.65847 L 191.1552,13.847725 H 99.16362 Z"
       id="path10563-0-6-7-2"
       sodipodi:nodetypes="ccccccc" />
  </g>
</svg>

<svg xmlns="http://www.w3.org/2000/svg" width="707.213" height="791.22" viewBox="0 0 187.117 209.344"><path style="fill:#fff;fill-opacity:1;fill-rule:evenodd;stroke:none;stroke-width:3.10444427;stroke-opacity:1" d="m7.168 13.848.933 117.58c2.036 49.46 42.269 88.631 91.06 88.659 48.748-.06 88.996-39.246 91.061-88.659l.933-117.58H99.164z" transform="translate(-5.603 -12.296)"/><path style="fill:#03f;fill-opacity:1;stroke:#000;stroke-width:5;stroke-linecap:round;stroke-linejoin:round;stroke-miterlimit:4;stroke-dasharray:none;stroke-opacity:1" d="M699.729 203.87c-9.562 8.978-19.897 17.13-30.922 24.278-29.79 19.316-63.55 31.41-96.155 45.463-32.604 14.054-65.074 30.774-88.988 57.016-23.906 26.233-37.495 59.984-51.033 92.793-13.538 32.809-28.09 66.335-53.313 91.305-25.223 24.97-58.895 39.181-91.84 52.386-32.944 13.206-66.83 26.452-93.304 50.092-26.483 23.648-43.53 55.948-57.912 88.408-.118.266-.232.533-.348.8 18.145 15.05 37.808 28.269 58.727 39.36 13.193-27.993 29.055-55.024 52.029-75.539 26.474-23.64 60.359-36.886 93.303-50.091 32.944-13.206 66.616-27.418 91.84-52.387 25.223-24.97 39.774-58.496 53.312-91.305 13.538-32.809 27.127-66.56 51.033-92.793 23.914-26.242 56.386-42.961 88.99-57.015 24.704-10.649 50.064-20.184 73.864-32.579l.717-90.193z" transform="scale(.26458)"/><path style="fill:#000;fill-opacity:1;stroke:#000;stroke-width:.99999994;stroke-linecap:round;stroke-linejoin:round;stroke-miterlimit:4;stroke-dasharray:none;stroke-opacity:1;paint-order:markers fill stroke" d="m8.97 391.242.47 59.024c2.631 63.921 22.152 123.29 54.066 173.757h51.166l93.766-175.51H440.8v-57.27H8.97z" transform="scale(.26458)"/><path style="fill:#fff;stroke:none;stroke-width:2.9104166;stroke-linecap:round;stroke-linejoin:round;stroke-miterlimit:4;stroke-dasharray:none;stroke-opacity:1" d="m191.155 13.848-.933 117.58c-.94 22.515-9.812 42.903-23.799 58.438L7.168 13.848h91.996z" transform="translate(-5.603 -12.296)"/><path style="fill:red;fill-opacity:1;stroke:#000;stroke-width:1.32291663;stroke-linecap:round;stroke-linejoin:round;stroke-miterlimit:4;stroke-dasharray:none;stroke-opacity:1;paint-order:markers fill stroke" d="m191.155 13.848-.357 44.983h-44.626V13.848zM146.172 58.83v44.983h-44.984V58.831zm-44.984 0H56.205V13.848H101.188zm-44.983 0v9.215l-8.338-9.215zm44.983 44.983v13.95l-12.621-13.95zm44.984 0h44.27l-.22 27.614a93.73 93.73 0 0 1-2.365 17.37h-41.685zm0 44.984v18.684l-16.905-18.684z" transform="translate(-5.603 -12.296)"/><path style="fill:none;stroke:#000;stroke-width:2.9104166;stroke-linecap:round;stroke-linejoin:round;stroke-miterlimit:4;stroke-dasharray:none;stroke-opacity:1" d="m191.155 13.848-.933 117.58c-.94 22.515-9.812 42.903-23.799 58.438L7.168 13.848h91.996z" transform="translate(-5.603 -12.296)"/><path style="fill:none;fill-rule:evenodd;stroke:#000;stroke-width:3.10444427;stroke-opacity:1" d="m7.168 13.848.933 117.58c2.036 49.46 42.269 88.631 91.06 88.659 48.748-.06 88.996-39.246 91.061-88.659l.933-117.58H99.164z" transform="translate(-5.603 -12.296)"/></svg>
